assets/icons/metro.svg

<svg width="16" height="16" fill="none" version="1.1" viewBox="0 0 16 16" xmlns="http://www.w3.org/2000/svg">
 <path d="m8 1.2578a2.1878 2.1878 0 0 0-0.97852 0.23047l-4.043 2.0234a1.77 1.77 0 0 0-0.97852 1.582v5.8125a1.77 1.77 0 0 0 0.97852 1.582l4.043 2.0234a2.1878 2.1878 0 0 0 1.957 0l4.043-2.0234a1.77 1.77 0 0 0 0.97852-1.582v-5.8125a1.77 1.77 0 0 0-0.97852-1.582l-4.043-2.0234a2.1878 2.1878 0 0 0-0.97852-0.23047zm0 0.99609a2.156 2.156 0 0 1 0.96484 0.22852l3.0352 1.5176-1.25 0.625-2.75-1.375-2.75 1.375-1.25-0.625 3.0352-1.5176a2.156 2.156 0 0 1 0.96484-0.22852zm-4.3008 2.6562a0.6612 0.6612 0 0 1 0.25781 0.068359l4.043 2.0215 4.043-2.0215a0.6612 0.6612 0 0 1 0.23438-0.066406 0.6612 0.6612 0 0 1 0.72266 0.6582v4.6094a1.731 1.731 0 0 1-0.95703 1.5488l-3.0859 1.543a2.1397 2.1397 0 0 1-1.9141 0l-3.0859-1.543a1.731 1.731 0 0 1-0.95703-1.5488v-4.6094a0.6612 0.6612 0 0 1 0.69922-0.66016zm0.30078 1.3398v4.25l4 2 4-2v-4.25l-3.0996 1.5508a2.0125 2.0125 0 0 1-1.8008 0l-3.0996-1.5508z" fill="#ef5350" stroke-width="0"/>
</svg>

<svg xmlns="http://www.w3.org/2000/svg" fill="none" viewBox="0 0 16 16"><path fill="#ef5350" d="M8 1.258a2.2 2.2 0 0 0-.979.23L2.978 3.512A1.77 1.77 0 0 0 2 5.094v5.812a1.77 1.77 0 0 0 .978 1.582l4.043 2.024a2.19 2.19 0 0 0 1.957 0l4.043-2.024A1.77 1.77 0 0 0 14 10.906V5.094a1.77 1.77 0 0 0-.979-1.582L8.978 1.488A2.2 2.2 0 0 0 8 1.258m0 .996a2.16 2.16 0 0 1 .965.228L12 4l-1.25.625L8 3.25 5.25 4.625 4 4l3.035-1.518A2.16 2.16 0 0 1 8 2.254M3.7 4.91a.7.7 0 0 1 .257.068L8 7l4.043-2.022a.7.7 0 0 1 .234-.066.66.66 0 0 1 .723.658v4.61a1.73 1.73 0 0 1-.957 1.548l-3.086 1.543a2.14 2.14 0 0 1-1.914 0l-3.086-1.543A1.73 1.73 0 0 1 3 10.18V5.57a.66.66 0 0 1 .7-.66M4 6.25v4.25l4 2 4-2V6.25L8.9 7.8a2.01 2.01 0 0 1-1.8 0z"/></svg>
